build/images/header-images/shoping-bag.svg

<svg width="28" height="28"  fill="#ffffff" xmlns="http://www.w3.org/2000/svg">
<path fill-rule="evenodd" clip-rule="evenodd" d="M7.97998 17.1149C8.27165 18.5733 9.55498 19.6116 11.0366 19.6116H11.1183H20.9183H20.9766C22.47 19.6116 23.7533 18.5733 24.045 17.1149L25.655 8.64492C25.7133 8.32992 25.62 8.01492 25.41 7.76992C25.2 7.52492 24.885 7.38492 24.5583 7.38492H8.30665L7.46665 3.19659C7.36165 2.69492 6.90665 2.33325 6.36998 2.33325H2.33331V4.45659H5.45998L7.97998 17.1149ZM10.1733 16.7183L8.72665 9.50825V9.49658H23.2283L21.8516 16.7183C21.7583 17.1733 21.3733 17.5233 20.9183 17.4883H11.0833C10.605 17.4766 10.2666 17.1733 10.1733 16.7183Z" fill="#F7F5F9"/>
<rect x="10.5" y="22.1667" width="11.6667" height="2.33333" fill="#F7F5F9"/>
</svg>

<svg width="28" height="28" fill="#fff" xmlns="http://www.w3.org/2000/svg"><path fill-rule="evenodd" clip-rule="evenodd" d="M7.98 17.115a3.111 3.111 0 003.057 2.497h9.94a3.115 3.115 0 003.068-2.497l1.61-8.47a1.045 1.045 0 00-.245-.875 1.124 1.124 0 00-.852-.385H8.307l-.84-4.188a1.106 1.106 0 00-1.097-.864H2.333v2.124H5.46l2.52 12.658zm2.193-.397l-1.446-7.21v-.011h14.501l-1.376 7.221c-.094.455-.479.805-.934.77h-9.835c-.478-.011-.816-.315-.91-.77z" fill="#F7F5F9"/><path fill="#F7F5F9" d="M10.5 22.167h11.667V24.5H10.5z"/></svg>
